src/assets/svg/napster.svg

<svg width="36" height="36" viewBox="0 0 40 40"><path d="M40 20.0303C40.007 15.4018 38.4084 10.9141 35.4768 7.33234C32.5451 3.75059 28.4619 1.29655 23.9233 0.388604C19.3846 -0.519345 14.6716 0.17501 10.5876 2.35329C6.50369 4.53157 3.3017 8.05891 1.52755 12.3339C-0.246586 16.609 -0.483031 21.367 0.858531 25.7969C2.20009 30.2267 5.0366 34.0542 8.88447 36.6266C12.7323 39.199 17.3533 40.3572 21.9596 39.9037C26.5659 39.4502 30.8723 37.4131 34.1446 34.1396C37.8864 30.3966 39.992 25.3229 40 20.0303Z" fill="#111111"></path><path d="M5.78483 1.34557e-07C4.96289 0.794427 3.97505 1.39677 2.89242 1.76367C1.80978 1.39677 0.821945 0.794427 -7.40065e-07 1.34557e-07H5.78483Z" transform="translate(17.09 27.2261)" fill="white"></path><path d="M8.80983 8.17501C7.65217 7.19208 6.29082 6.47827 4.82394 6.08506V15.3884C4.82394 17.8874 5.81666 20.284 7.5837 22.051C9.35074 23.8181 11.7474 24.8108 14.2463 24.8108C16.7453 24.8108 19.1419 23.8181 20.909 22.051C22.676 20.284 23.6687 17.8874 23.6687 15.3884V6.1027C22.1971 6.4928 20.83 7.20347 19.6652 8.18382C18.0787 7.06771 16.1862 6.46872 14.2463 6.46872C12.3065 6.46872 10.414 7.06771 8.82747 8.18382L8.80983 8.17501ZM8.80983 5.46778C10.4764 4.60179 12.3285 4.1539 14.2067 4.16267C16.0838 4.16187 17.9341 4.60931 19.6035 5.46778C19.9739 5.2385 20.3883 5.00923 20.794 4.79759C19.0022 3.14413 16.6536 2.22602 14.2155 2.22602C11.7774 2.22602 9.42872 3.14413 7.63699 4.79759C8.01618 5.00923 8.46592 5.25614 8.81865 5.4766L8.80983 5.46778ZM5.40595 3.92457C6.51894 2.68923 7.87906 1.70152 9.39818 1.02544C10.9173 0.34936 12.5615 -1.47787e-07 14.2243 -1.47787e-07C15.8871 -1.47787e-07 17.5313 0.34936 19.0504 1.02544C20.5695 1.70152 21.9297 2.68923 23.0426 3.92457C24.0064 3.68318 24.9946 3.55299 25.988 3.53657V7.51363C26.7628 7.99252 27.4025 8.66153 27.846 9.45715C28.2896 10.2528 28.5225 11.1486 28.5225 12.0595C28.5225 12.9704 28.2896 13.8662 27.846 14.6618C27.4025 15.4574 26.7628 16.1264 25.988 16.6053V16.7023C25.6331 19.5645 24.2414 22.1974 22.0763 24.1027C19.9111 26.008 17.1227 27.0536 14.2386 27.0417C11.3545 27.0297 8.5748 25.9611 6.4255 24.0379C4.27621 22.1147 2.9064 19.4704 2.57527 16.6053C1.79373 16.125 1.1473 15.4536 0.696828 14.6545C0.246355 13.8554 0.00666054 12.9548 0.000311387 12.0374C-0.00957919 11.1217 0.216438 10.2188 0.656606 9.41565C1.09677 8.61254 1.73627 7.93625 2.51354 7.4519V3.51893C3.48858 3.55968 4.45732 3.69554 5.40595 3.92457V3.92457Z" transform="translate(5.75806 7.56934)" fill="white"></path><path d="M2.34568 0.154236C3.74148 0.0342491 5.14241 -0.0157841 6.54321 0.00432389C6.563 0.555464 6.42812 1.10114 6.15383 1.57959C5.87954 2.05804 5.47679 2.45015 4.99118 2.71155C4.53316 2.93235 4.03525 3.05833 3.52734 3.08192C2.06349 3.14365 1.34557e-07 3.17892 1.34557e-07 3.17892C0.405644 1.53871 1.01411 0.321784 2.34568 0.154236Z" transform="translate(20.582 22.8037)" fill="white"></path><path d="M4.22575 0.15881C5.53087 0.299903 6.13933 1.53447 6.50088 3.1835C6.50088 3.1835 4.43739 3.1835 2.97355 3.08649C2.46563 3.0629 1.96772 2.93692 1.5097 2.71612C1.03558 2.44282 0.644761 2.04566 0.379122 1.5672C0.113484 1.08874 -0.016961 0.547014 0.00176684 7.97157e-05C0.00176684 7.97157e-05 2.65609 -0.00873835 4.22575 0.15881Z" transform="translate(12.8201 22.7988)" fill="white"></path><path d="M5.52028 0.917105C4.68739 1.41869 3.73239 1.68109 2.76014 1.67548C1.78734 1.68526 0.831232 1.42256 6.05507e-07 0.917105C0.0395505 0.724328 0.111085 0.539531 0.211641 0.37037C0.304206 0.222416 0.427511 0.096104 0.573192 1.34557e-06C1.28383 0.206152 2.0202 0.310074 2.76014 0.308641C3.5004 0.314836 4.23746 0.210817 4.94709 1.34557e-06C5.11039 0.101907 5.24417 0.244798 5.3351 0.41446C5.43449 0.565624 5.49785 0.73759 5.52028 0.917105Z" transform="translate(17.2222 29.4834)" fill="white"></path></svg>

<?xml version="1.0" encoding="UTF-8" standalone="no"?>
<svg width="36" xmlns="http://www.w3.org/2000/svg" viewBox="0 0 40 40" height="36">
 <path d="m40 20.03c0.007-4.628-1.592-9.116-4.523-12.698-2.932-3.5814-7.015-6.0354-11.554-6.9434-4.538-0.90794-9.251-0.21359-13.335 1.9647-4.0843 2.1783-7.2863 5.7056-9.0604 9.9807-1.7742 4.275-2.0106 9.033-0.66907 13.463 1.3416 4.43 4.1781 8.257 8.026 10.83 3.8475 2.572 8.4685 3.73 13.076 3.277 4.606-0.454 8.912-2.491 12.185-5.764 3.741-3.743 5.847-8.817 5.855-14.11z" fill="#111"/>
 <path fill="#fff" d="m5.7848 1.3456e-7c-0.8219 0.79443-1.8098 1.3968-2.8924 1.7637-1.0826-0.3669-2.0705-0.96927-2.8924-1.7637h5.7848z" transform="translate(17.09 27.226)"/>
 <path fill="#fff" d="m8.8098 8.175c-1.1576-0.9829-2.519-1.6967-3.9859-2.0899v9.3029c0 2.499 0.9928 4.896 2.7598 6.663s4.1633 2.76 6.6623 2.76 4.896-0.993 6.663-2.76 2.76-4.164 2.76-6.663v-9.2853c-1.472 0.3901-2.839 1.1008-4.004 2.0811-1.586-1.1161-3.479-1.7151-5.419-1.7151s-3.832 0.599-5.4185 1.7151l-0.0177-0.0088zm0-2.7072c1.6662-0.866 3.5182-1.3139 5.3972-1.3051 1.877-0.0008 3.727 0.4466 5.397 1.3051 0.37-0.2293 0.784-0.4586 1.19-0.6702-1.792-1.6535-4.14-2.5716-6.578-2.5716-2.439 0-4.7873 0.9181-6.579 2.5716 0.3792 0.2116 0.8289 0.4585 1.1816 0.679l-0.0088-0.0088zm-3.4038-1.5432c1.1129-1.2354 2.4731-2.2231 3.9922-2.8992 1.5188-0.67604 3.1638-1.0254 4.8258-1.0254 1.663-1.4779e-7 3.307 0.34936 4.826 1.0254 1.52 0.6761 2.88 1.6638 3.993 2.8992 0.963-0.2414 1.952-0.3716 2.945-0.388v3.977c0.775 0.4789 1.414 1.1479 1.858 1.9436 0.444 0.7958 0.676 1.6918 0.676 2.6028 0 0.91-0.232 1.806-0.676 2.602-0.444 0.795-1.083 1.464-1.858 1.943v0.097c-0.355 2.862-1.747 5.495-3.912 7.401-2.165 1.905-4.953 2.951-7.837 2.939-2.885-0.012-5.6642-1.081-7.8135-3.004s-3.5191-4.568-3.8502-7.433c-0.7816-0.48-1.428-1.151-1.8785-1.951-0.45044-0.799-0.69014-1.699-0.69649-2.617-0.0098892-0.915 0.21613-1.818 0.6563-2.6214 0.44019-0.8031 1.0797-1.4794 1.8569-1.9637v-3.933c0.9751 0.0408 1.9438 0.1766 2.8925 0.4057z" transform="translate(5.7581 7.5693)"/>
 <path fill="#fff" d="m2.3457 0.15424c1.3958-0.11999 2.7967-0.17002 4.1975-0.14992 0.0198 0.55114-0.1151 1.0968-0.3894 1.5753-0.2743 0.4784-0.677 0.8706-1.1626 1.132-0.458 0.2208-0.956 0.3467-1.4639 0.3703-1.4638 0.0617-3.5273 0.097-3.5273 0.097 0.40564-1.6402 1.0141-2.8571 2.3457-3.0247z" transform="translate(20.582 22.804)"/>
 <path fill="#fff" d="m4.2258 0.15881c1.3051 0.14109 1.9135 1.3757 2.2751 3.0247 0 0-2.0635 0-3.5273-0.097-0.508-0.0236-1.0059-0.1496-1.4639-0.3704-0.4741-0.2733-0.86494-0.6704-1.1306-1.1489-0.26562-0.4785-0.39606-1.0202-0.37733-1.5671-0.0000032-0.000020284 2.6543-0.0088384 4.224 0.15871z" transform="translate(12.82 22.799)"/>
 <path fill="#fff" d="m5.5203 0.9171c-0.8329 0.5016-1.7879 0.764-2.7602 0.7584-0.9728 0.0098-1.9289-0.2529-2.7601-0.7584 0.03955-0.19277 0.11108-0.37757 0.21164-0.54673 0.09257-0.14795 0.21587-0.27427 0.36155-0.37037 0.71061 0.20615 1.447 0.31007 2.1869 0.30864 0.7403 0.0062 1.4774-0.09782 2.187-0.30864 0.1633 0.10191 0.2971 0.2448 0.388 0.41446 0.0994 0.15116 0.1627 0.32313 0.1852 0.50264z" transform="translate(17.222 29.483)"/>
</svg>
